X:1
T:Title
%%score { ( 1 3 ) | ( 2 4 5 ) }
L:1/8
Q:1/4=108
M:4/4
K:C
V:1 treble nm="Grand Piano"
V:3 treble 
V:2 bass 
V:4 bass 
V:5 bass 
V:1
 [CE]2 [CE]2 [CE]2 [CE]2 | z4 [DF]4 | [G,DF]2 [G,DF]2 [G,DF]2 [G,DF]2 | z4 [EG]4[K:bass] | %4
w: C.~Austin~Miles * * *||||
 [EG]>[EG] [Ec]>[EG] (3AAA A2 | [^FA]>[FA] [Fd]>[FA] (3BBB B2 | %6
w: ||
 [Ec]>[EB] [Ec]>[FA] [EG]>[FA] [EG]>[A,CF] | [CE]2[K:bass] [F,B,D]2 [E,C]4 | %8
w: ||
 [G,B,DFG]>[B,DFA] [B,DFB]>[B,DFA] [B,DFG]4 | [EGc]>[EGd] [EGe]>[EGd] [EGc]4 | B>B B>F (3BBB B2 | %11
w: |||
 [EA]>[EA] [EA]>E (3[EG][EG][EG] [EG]2 | z4 G4 | [EGc]>[EGd] [EGe]>[EGd] c2- [EGc]2 | %14
w: |||
 A>B c>A (3[EG][EG][EG] [EG]>[Ec] | [Ge]2 [Fd]2 [Ec]4 |] %16
w: ||
V:2
 [C,G,]2 [G,,G,]2 [C,G,]2 [G,,G,]2 | [C,G,]2 [G,,G,]2 [B,,G,]2 G,,2 | B,,2 G,,2 B,,2 G,,2 | %3
 [B,,G,]2 [G,,G,]2 [C,G,]2 z2 | [C,C]>[C,C] [C,G,]>[C,C] (3[F,CF][F,CF][F,CF] [F,CF]2 | %5
 [D,D]>[D,D] [D,A,]>[D,D][K:treble] (3[G,DF][G,DF][G,DF] [G,DF]2 | %6
 [C,C]>[C,C] [C,C]>[C,C] [C,C]>[C,C] [C,C]>F, | z4 z2[K:treble] (3GGG | %8
 G,,>[G,,G,] [G,,G,]>[G,,G,] [G,,G,]4 | [C,G,]>[C,G,] [C,G,]>[C,G,] [C,C]4 | %10
 [G,B,DF]>[G,B,DF] [G,B,DF]>[G,B,D] (3[G,B,DF][G,B,DF][G,B,DF] [G,B,DF]2 | %11
 [C,C]>[C,C] [C,C]>[C,C] (3[C,C][C,C][C,C] [C,C]2 | %12
 [G,,G,]>[G,,G,] [G,,G,]>[G,,G,] [G,,G,]2 [G,,G,]2 | [C,G,]>[C,G,] [C,G,]>[C,G,] [C,G,]2 [C,C]2 | %14
 [F,A,CF]>[F,A,CF] [F,A,CF]>[F,A,CF] (3[C,C][C,C][C,C] [C,C]>[C,C] | [C,G,]2 [G,,G,]2 [C,G,]4 |] %16
V:3
 x8 | [CE]>[CE] [B,D]>[CE] z2 G,2 | x8 | [DF]>[DF] [CE]>[DF] z2[K:bass] [C,G,]2 | x8 | x8 | x8 | %7
 x2[K:bass] x6 | x8 | x8 | x8 | x8 | [B,DFG]>[B,DFA] [B,DFB]>[B,DFA] [B,DF]2 [B,DF]2 | %13
 z4 [EG]2 z2 | x8 | x8 |] %16
V:4
 x8 | x8 | x8 | x8 | x8 | x4[K:treble] x4 | x8 | G,2 G,,2 (3z[K:treble] GG z2 | x8 | x8 | x8 | x8 | %12
 x8 | x8 | x8 | x8 |] %16
V:5
 x8 | x8 | x8 | x8 | x8 | x4[K:treble] x4 | x8 | z4 C,4[K:treble] | x8 | x8 | x8 | x8 | x8 | x8 | %14
 x8 | x8 |] %16

